X:1
T:The Blantrye Explosion
M:3/4
L:1/4
K:C
 E| A2 B/2A/2| G2 A/2B/2| c B A| B E2| z2 z/2 G/2| G3/2 F/2 E| D2C/2-D/2|\
 E A3/2 A/2| A3| z2 E| A3/2 B/2 A| G/2 A3/2 B| c B A| B E2| z2 z/2 G/2|\
 G3/2 F/2 E| D C D| E/2 A3/2 A| A3| z2 e| e2 d/2^c/2| d e3/2 d/2| ^c B A|\
 ^G E2| z2 E| A3/2 B/2 A| G A B| c/2 B3/2 A| B3| z2 E| A3/2 B/2 A|\
 G A B| c3/2 B/2 A| B E2| z2 G/2G/2| G F E| D3/2 C/2 D| E A/2 A3/2|\
 A3| z2||
